X: 1
T:Swallowtail Jig, The
T:Dancing Master, The
R:jig
M:6/8
L:1/8
K:Edor
GEE BEE|GEG BAG|FDD ADD|dcd AGF|!
GEE BEE|GEG B2c|dcd AGF|1 GEE E2F:|2 GEE E3||!
|:Bcd e2f|e2f edB|Bcd e2f|edB d3|!
Bcd e2f|e2f edB|dcd AGF|1 GEE E3:|2 GEE E2F||!
